images/__logo.svg

<svg width="271" height="72" viewBox="0 0 271 72" fill="none" xmlns="http://www.w3.org/2000/svg">
<path d="M1.32031 69H5.26918V64.6818H7.45668C10.7734 64.6818 12.9964 62.7287 12.9964 59.5966C12.9964 56.5 10.8303 54.4545 7.59872 54.4545H1.32031V69ZM5.26918 61.6136V57.608H6.66122C8.04616 57.608 8.87713 58.3466 8.87713 59.5966C8.87713 60.8395 8.04616 61.6136 6.66122 61.6136H5.26918ZM14.4453 69H18.3942V64.1989H19.7578L22.3146 69H26.6044L23.6499 63.5739C25.1982 62.8281 26.1214 61.4148 26.1214 59.3977C26.1214 56.3011 23.9553 54.4545 20.7237 54.4545H14.4453V69ZM18.3942 61.1307V57.608H19.7862C21.1712 57.608 22.0021 58.1477 22.0021 59.3977C22.0021 60.6406 21.1712 61.1307 19.7862 61.1307H18.3942ZM31.5831 69L32.4212 66.2159H37.2223L38.0604 69H42.3217L37.5206 54.4545H32.1229L27.3217 69H31.5831ZM33.3161 63.2614L34.7649 58.4602H34.8786L36.3274 63.2614H33.3161ZM56.6186 59.9091C56.3061 56.3011 53.6641 54.2557 49.9993 54.2557C46.0788 54.2557 42.9822 56.8693 42.9822 61.7273C42.9822 66.5639 45.9936 69.1989 49.9993 69.1989C54.2607 69.1989 56.4197 66.2443 56.6186 63.7727L52.6129 63.7443C52.4141 64.9872 51.5334 65.7614 50.0845 65.7614C48.1598 65.7614 47.0447 64.3977 47.0447 61.7273C47.0447 59.1989 48.1243 57.6932 50.1129 57.6932C51.6328 57.6932 52.4993 58.5881 52.6129 59.9091H56.6186ZM58.0124 57.6364H62.3874V69H66.2795V57.6364H70.6545V54.4545H58.0124V57.6364ZM76.0895 54.4545H72.1406V69H76.0895V54.4545ZM91.5405 59.9091C91.228 56.3011 88.5859 54.2557 84.9212 54.2557C81.0007 54.2557 77.9041 56.8693 77.9041 61.7273C77.9041 66.5639 80.9155 69.1989 84.9212 69.1989C89.1825 69.1989 91.3416 66.2443 91.5405 63.7727L87.5348 63.7443C87.3359 64.9872 86.4553 65.7614 85.0064 65.7614C83.0817 65.7614 81.9666 64.3977 81.9666 61.7273C81.9666 59.1989 83.0462 57.6932 85.0348 57.6932C86.5547 57.6932 87.4212 58.5881 87.5348 59.9091H91.5405ZM101.94 54.4545V63.4318C101.94 64.7884 100.967 65.7614 99.6104 65.7614C98.2539 65.7614 97.2809 64.7884 97.2809 63.4318V54.4545H93.332V63.7727C93.332 67.0966 95.8462 69.1705 99.6104 69.1705C103.346 69.1705 105.889 67.0966 105.889 63.7727V54.4545H101.94ZM107.766 54.4545V69H111.629V60.5341H111.743L114.982 68.8864H117.311L120.55 60.5909H120.663V69H124.527V54.4545H119.612L116.232 62.6932H116.061L112.68 54.4545H107.766ZM134.161 69L134.999 66.2159H139.8L140.638 69H144.9L140.099 54.4545H134.701L129.9 69H134.161ZM135.894 63.2614L137.343 58.4602H137.457L138.906 63.2614H135.894ZM146.301 69H150.25V64.1989H151.613L154.17 69H158.46L155.505 63.5739C157.054 62.8281 157.977 61.4148 157.977 59.3977C157.977 56.3011 155.811 54.4545 152.579 54.4545H146.301V69ZM150.25 61.1307V57.608H151.642C153.027 57.608 153.858 58.1477 153.858 59.3977C153.858 60.6406 153.027 61.1307 151.642 61.1307H150.25ZM159.262 57.6364H163.637V69H167.529V57.6364H171.904V54.4545H159.262V57.6364ZM186.821 59.2557H190.812C190.507 56.3366 187.858 54.2557 184.42 54.2557C180.5 54.2557 177.318 56.9545 177.318 61.7557C177.318 66.358 180.202 69.1989 184.449 69.1989C188.256 69.1989 190.983 66.8693 190.983 62.892V60.875H184.534V63.6875H187.176C187.141 64.9517 186.246 65.7614 184.477 65.7614C182.432 65.7614 181.381 64.2557 181.381 61.6989C181.381 59.1776 182.517 57.6932 184.506 57.6932C185.741 57.6932 186.58 58.2614 186.821 59.2557ZM196.153 69L196.991 66.2159H201.793L202.631 69H206.892L202.091 54.4545H196.693L191.892 69H196.153ZM197.886 63.2614L199.335 58.4602H199.449L200.898 63.2614H197.886ZM208.293 69H218.123V65.8182H212.242V54.4545H208.293V69ZM219.719 69H229.548V65.8182H223.668V54.4545H219.719V69ZM231.145 69H241.599V65.8182H235.093V63.3182H241.088V60.1364H235.093V57.6364H241.627V54.4545H231.145V69ZM243.586 69H247.535V64.1989H248.898L251.455 69H255.745L252.79 63.5739C254.339 62.8281 255.262 61.4148 255.262 59.3977C255.262 56.3011 253.096 54.4545 249.864 54.4545H243.586V69ZM247.535 61.1307V57.608H248.927C250.312 57.608 251.143 58.1477 251.143 59.3977C251.143 60.6406 250.312 61.1307 248.927 61.1307H247.535ZM255.665 54.4545L261.006 64.4261V69H264.926V64.4261L270.267 54.4545H265.864L263.023 60.3636H262.909L260.069 54.4545H255.665Z" fill="white"/>
<rect x="119" width="32" height="32" rx="2" fill="#0278FE"/>
<rect x="119" y="6" width="32" height="2" fill="#2A2C2F"/>
<rect x="130" y="6" width="2" height="26" fill="#2A2C2F"/>
</svg>

<svg width="271" height="72" fill="none" xmlns="http://www.w3.org/2000/svg"><path d="M1.32 69h3.95v-4.318h2.187c3.316 0 5.54-1.953 5.54-5.085 0-3.097-2.167-5.142-5.398-5.142H1.32V69Zm3.95-7.386v-4.006H6.66c1.385 0 2.216.739 2.216 1.989 0 1.242-.83 2.017-2.216 2.017H5.27ZM14.444 69h3.95v-4.801h1.363L22.315 69h4.29l-2.955-5.426c1.548-.746 2.471-2.16 2.471-4.176 0-3.097-2.166-4.944-5.397-4.944h-6.279V69Zm3.95-7.87v-3.522h1.391c1.385 0 2.216.54 2.216 1.79 0 1.243-.83 1.733-2.216 1.733h-1.392ZM31.582 69l.838-2.784h4.801L38.06 69h4.262L37.52 54.455h-5.398L27.322 69h4.261Zm1.733-5.739 1.449-4.8h.114l1.448 4.8h-3.01ZM56.62 59.91c-.313-3.608-2.955-5.653-6.62-5.653-3.92 0-7.017 2.613-7.017 7.471 0 4.837 3.012 7.472 7.017 7.472 4.262 0 6.42-2.955 6.62-5.426l-4.006-.029c-.199 1.243-1.08 2.017-2.529 2.017-1.924 0-3.04-1.363-3.04-4.034 0-2.528 1.08-4.034 3.069-4.034 1.52 0 2.386.895 2.5 2.216h4.006Zm1.393-2.273h4.375V69h3.892V57.636h4.376v-3.181H58.011v3.181Zm18.078-3.181h-3.95V69h3.95V54.455Zm15.45 5.454c-.312-3.608-2.954-5.653-6.619-5.653-3.92 0-7.017 2.613-7.017 7.471 0 4.837 3.011 7.472 7.017 7.472 4.261 0 6.42-2.955 6.62-5.426l-4.006-.029c-.2 1.243-1.08 2.017-2.529 2.017-1.924 0-3.04-1.363-3.04-4.034 0-2.528 1.08-4.034 3.069-4.034 1.52 0 2.386.895 2.5 2.216h4.005Zm10.4-5.454v8.977c0 1.356-.973 2.33-2.33 2.33-1.356 0-2.33-.974-2.33-2.33v-8.977h-3.948v9.318c0 3.324 2.514 5.398 6.278 5.398 3.736 0 6.279-2.074 6.279-5.398v-9.319h-3.949Zm5.826 0V69h3.863v-8.466h.114l3.239 8.352h2.329l3.239-8.295h.113V69h3.864V54.455h-4.915l-3.38 8.238h-.171l-3.381-8.238h-4.914ZM134.161 69l.838-2.784h4.801l.838 2.784h4.262l-4.801-14.545h-5.398L129.9 69h4.261Zm1.733-5.739 1.449-4.8h.114l1.449 4.8h-3.012ZM146.301 69h3.949v-4.801h1.363L154.17 69h4.29l-2.955-5.426c1.549-.746 2.472-2.16 2.472-4.176 0-3.097-2.166-4.944-5.398-4.944h-6.278V69Zm3.949-7.87v-3.522h1.392c1.385 0 2.216.54 2.216 1.79 0 1.243-.831 1.733-2.216 1.733h-1.392Zm9.012-3.494h4.375V69h3.892V57.636h4.375v-3.181h-12.642v3.181Zm27.559 1.62h3.991c-.305-2.92-2.954-5-6.392-5-3.92 0-7.102 2.699-7.102 7.5 0 4.602 2.884 7.443 7.131 7.443 3.807 0 6.534-2.33 6.534-6.307v-2.017h-6.449v2.813h2.642c-.035 1.264-.93 2.073-2.699 2.073-2.045 0-3.096-1.505-3.096-4.062 0-2.521 1.136-4.006 3.125-4.006 1.235 0 2.074.568 2.315 1.563ZM196.153 69l.838-2.784h4.802l.838 2.784h4.261l-4.801-14.545h-5.398L191.892 69h4.261Zm1.733-5.739 1.449-4.8h.114l1.449 4.8h-3.012ZM208.293 69h9.83v-3.182h-5.881V54.455h-3.949V69Zm11.426 0h9.829v-3.182h-5.88V54.455h-3.949V69Zm11.426 0h10.454v-3.182h-6.506v-2.5h5.995v-3.182h-5.995v-2.5h6.534v-3.181h-10.482V69Zm12.441 0h3.949v-4.801h1.363L251.455 69h4.29l-2.955-5.426c1.549-.746 2.472-2.16 2.472-4.176 0-3.097-2.166-4.944-5.398-4.944h-6.278V69Zm3.949-7.87v-3.522h1.392c1.385 0 2.216.54 2.216 1.79 0 1.243-.831 1.733-2.216 1.733h-1.392Zm8.13-6.675 5.341 9.971V69h3.92v-4.574l5.341-9.971h-4.403l-2.841 5.909h-.114l-2.84-5.91h-4.404Z" fill="#fff"/><rect x="119" width="32" height="32" rx="2" fill="#0278FE"/><path fill="#2A2C2F" d="M119 6h32v2h-32z"/><path fill="#2A2C2F" d="M130 6h2v26h-2z"/></svg>
